src/24/panel/qtpass-tray.svg

<svg xmlns="http://www.w3.org/2000/svg" width="24" height="24" version="1.1">
 <defs>
  <style id="current-color-scheme" type="text/css">
   .ColorScheme-Text { color:#dfdfdf; } .ColorScheme-Highlight { color:#5294e2; }
  </style>
 </defs>
 <path style="opacity:0.3;fill:currentColor" class="ColorScheme-Text" d="M 12.000001,4 C 10.733341,4 9.6438613,4.557 8.9691413,5.4004 8.2944213,6.24378 8.0000013,7.31482 8.0000013,8.4 l 0,6.6 1.9999997,0 0,-6.6 c 0,-0.71482 0.20558,-1.34378 0.53086,-1.7504 C 10.856141,6.243 11.266661,6 12.000001,6 c 0.73334,0 1.14386,0.243 1.46914,0.6496 0.32528,0.40662 0.53086,1.03558 0.53086,1.7504 l 0,6.6 2,0 0,-6.6 c 0,-1.08518 -0.29442,-2.15622 -0.96914,-2.9996 C 14.356141,4.557 13.266661,4 12.000001,4 Z"/>
 <path style="fill:currentColor" class="ColorScheme-Text" d="M 9.3587317,9.0039062 C 7.4329303,8.9164502 6.1006111,10.485836 6.0054515,12.185547 5.9560485,13.067973 6.2402372,13.985452 6.947647,14.724609 L 12,20 17.052354,14.724609 c 0.707406,-0.739148 0.991594,-1.656622 0.942195,-2.539062 -0.09516,-1.6997 -1.427479,-3.2691008 -3.35328,-3.1816408 C 13.545143,9.0534862 12.549122,9.6839612 12,10.675781 11.450875,9.6839527 10.454848,9.0534854 9.3587317,9.0039062 Z M 11.001234,12 12,12 l 0.998767,0 0,2 -0.477926,0 0.977309,2 L 12,16 l -1.498149,0 0.977309,-2 -0.477926,0 0,-2 z"/>
</svg>

<svg xmlns="http://www.w3.org/2000/svg" width="24" height="24"><defs><style id="current-color-scheme" type="text/css">.ColorScheme-Text{color:#dfdfdf}</style></defs><path class="ColorScheme-Text" d="M12 4c-1.267 0-2.356.557-3.03 1.4-.676.844-.97 1.915-.97 3V15h2V8.4c0-.715.206-1.344.53-1.75.326-.407.737-.65 1.47-.65s1.144.243 1.47.65c.324.406.53 1.035.53 1.75V15h2V8.4c0-1.085-.294-2.156-.97-3C14.357 4.557 13.268 4 12 4z" opacity=".3" fill="currentColor"/><path class="ColorScheme-Text" d="M9.359 9.004c-1.926-.088-3.258 1.482-3.354 3.182-.049.882.235 1.8.943 2.539L12 20l5.052-5.275c.708-.74.992-1.657.943-2.54-.096-1.7-1.428-3.269-3.354-3.181-1.096.05-2.092.68-2.641 1.672-.55-.992-1.545-1.623-2.641-1.672zM11 12H13v2h-.478l.977 2h-2.996l.977-2h-.478v-2z" fill="currentColor"/></svg>
